Sources/FrostedUI/Resources/Icons.xcassets/shareScreen24.imageset/share-screen-24.svg

<svg width="24" height="24" viewBox="0 0 24 24" fill="none" xmlns="http://www.w3.org/2000/svg" data-fui-icon="true">
  <path
    d="M17.1455 2.63184C19.9193 2.77262 22.125 5.06623 22.125 7.875V16.125C22.125 19.0245 19.7745 21.375 16.875 21.375H7.125C4.22551 21.375 1.875 19.0245 1.875 16.125V7.875C1.875 4.97551 4.22551 2.625 7.125 2.625H16.875L17.1455 2.63184ZM7.125 4.125C5.05393 4.125 3.375 5.80393 3.375 7.875V16.125C3.375 18.1961 5.05393 19.875 7.125 19.875H16.875C18.9461 19.875 20.625 18.1961 20.625 16.125V7.875C20.625 5.86878 19.0496 4.23051 17.0684 4.12988L16.875 4.125H7.125ZM11.2109 7.6123C11.7019 7.21182 12.4261 7.24058 12.8838 7.69824L15.9053 10.7197C16.1982 11.0126 16.1982 11.4874 15.9053 11.7803C15.6124 12.0731 15.1376 12.0731 14.8447 11.7803L12.75 9.68555V15.75C12.75 16.1642 12.4142 16.5 12 16.5C11.5858 16.5 11.25 16.1642 11.25 15.75V9.68555L9.15527 11.7803C8.86239 12.0731 8.38761 12.0731 8.09473 11.7803C7.80184 11.4874 7.80186 11.0126 8.09473 10.7197L11.1162 7.69824L11.2109 7.6123Z"
    fill="currentColor"
  />
</svg>

<svg xmlns="http://www.w3.org/2000/svg" width="24" height="24" fill="none" data-fui-icon="true" viewBox="0 0 24 24"><path fill="currentColor" d="M17.146 2.632a5.25 5.25 0 0 1 4.979 5.243v8.25c0 2.9-2.35 5.25-5.25 5.25h-9.75a5.25 5.25 0 0 1-5.25-5.25v-8.25c0-2.9 2.35-5.25 5.25-5.25h9.75zM7.124 4.125a3.75 3.75 0 0 0-3.75 3.75v8.25a3.75 3.75 0 0 0 3.75 3.75h9.75a3.75 3.75 0 0 0 3.75-3.75v-8.25a3.75 3.75 0 0 0-3.557-3.745l-.193-.005zm4.086 3.487a1.25 1.25 0 0 1 1.673.086l3.021 3.022a.75.75 0 1 1-1.06 1.06L12.75 9.686v6.064a.75.75 0 0 1-1.5 0V9.686L9.155 11.78a.75.75 0 0 1-1.06-1.06l3.021-3.022z"/></svg>
